X:1
T:Ein grosse Frewd verkünndig ich
T:André  Vierendeels
T:Melody by Georg Vogler (1625) (Soprano voice).
T:Source :  Catechismus---Würzburg---J.Volmari---1652 Editor : André Vierendeels (26/09/17). 
T:Notes : Original clef : C1, other voices supplied editorially Original note values have been quartered Text Middle German
T:Ein grosse Frewd verkünndig euch
T:©
T:©
C:André  Vierendeels
Z:©
%%score [ 1 2 3 ]
L:1/8
Q:1/4=120
M:3/4
K:C
V:1 treble nm="Soprano" snm="S"
V:2 treble-8 nm="Tenor" snm="T"
V:3 bass nm="Bass" snm="B"
V:1
 z2 z2 D2 |"^1)" F4 G2 | A4 c2 | A4 G2 | F4 A2 | c4 A2 | F4 G2 | F2 E4 | D4 E2 | F4 D2 | A4 D2 | %11
w: Ein|gros- se|Frewd ver-|kün- dig|euch und|al- len|Völ- kern|auff Er-|den, O|Christ wach|auff, steh'|
w: Auff,|Auff, kei-|ner sich|sau- men|soll, dann|Himm'l und|Erd seyn|frew- den-|voll, O|||
 F4 E2 | D4 G2 | G4 A2 | E4 D2 | E3 D E2 | ^F6 |] %17
w: auff und|lauff zum|Kindl, zum|Krippl, zum|Müt- ter- lein,|lauff.|
w: ||||||
V:2
"^1)" A6 |"^2)" d4 c2 | c4 e2 | f4 d2 | A4 A2 | G4 c2 | A4 B2 | A2 d2 c2 | A4 c2 | A4 B2 | %10
w: Ein|gros- se|Frewd ver-|kün- dig|euch und|al- len|Völ- kern|auff Er- *|den, O|Christ, wach|
w: Lauff|mit den|Hir- ten,|saumbt euch|nicht, der|Welt Hey-|land wird|heut ge- *|schickt, O||
 A2 F2 G2 | A4 G2 | A4 B2 | c4 F2 | G4 A2 | G2 F2 c2 | d6 |] %17
w: auff, steh' _|auff und|lauff zum|Kindl, zum|Krippl, zum|Müt- ter- lein,|lauff.|
w: |||||||
V:3
"^3)""^1)""^4)" D,6 | D,4 E,2 | F,4 C,2 | D,4 G,2 | D,4 F,2 | E,4 F,2 | D,4 G,2 | D,2 A,4 | %8
w: Ein|gros- se|Frewd ver-|kün- dig|euch und|al- len|Völ- kern|auff Er-|
w: Das|e- wig|Wort ist|wor- den|Fleisch, emp-|fan- gen|von den|heil- gen|
 D,4 C,2 | D,4 G,2 | D,4 G,2 | F,4 C,2 | D,4 G,2 | E,4 D,2 | C,4 F,2 | C,2 D,2 A,2 | D,6 |] %17
w: den, O|Christ, wach|auff, steh'|auff und|lauff zum|Kindl, zum|Krippl, zum|Müt- ter- lein,|lauff.|
w: Geist, O|||||||||

